dist/svgs/icons/sm/bus.svg

<svg viewBox="0 0 16 16" xmlns="http://www.w3.org/2000/svg">
  <path d="M13.1991 3C13.5036 3 13.7968 3.0881 14.0471 3.25499C14.7765 3.7397 15.9999 5.03724 15.9999 8.2766L16 11.4681C16 12.3128 15.3128 13 14.4681 13H14C14 11.8954 13.1046 11 12 11C10.8954 11 10 11.8954 10 13H6C6 11.8954 5.10457 11 4 11C2.89543 11 2 11.8954 2 13H1.53191C0.687175 13 0 12.3128 0 11.4681V4.53191C0 3.68717 0.687165 3 1.53191 3H13.1991ZM14.9999 8C14.9999 5.5 13.8858 4.37422 13.4813 4.10506C13.3979 4.04953 13.3031 4.02128 13.1991 4.02128H11.234L11.234 7C13.012 7.10352 14.2555 7.43035 14.9999 8ZM10.2127 4.02128H1.53191C1.25033 4.02128 1.02127 4.25034 1.02127 4.53191L1.02127 6.98537H10.2127L10.2127 4.02128Z"/>
  <path d="M5 13C5 13.5523 4.55228 14 4 14C3.44772 14 3 13.5523 3 13C3 12.4477 3.44772 12 4 12C4.55228 12 5 12.4477 5 13Z"/>
  <path d="M12 14C12.5523 14 13 13.5523 13 13C13 12.4477 12.5523 12 12 12C11.4477 12 11 12.4477 11 13C11 13.5523 11.4477 14 12 14Z"/>
</svg>

<svg xmlns="http://www.w3.org/2000/svg" viewBox="0 0 24 24"><path d="M13.2 3c.304 0 .597.088.847.255C14.777 3.74 16 5.037 16 8.277v3.191c0 .845-.687 1.532-1.532 1.532H14a2 2 0 1 0-4 0H6a2 2 0 1 0-4 0h-.468A1.534 1.534 0 0 1 0 11.468V4.532C0 3.687.687 3 1.532 3zM15 8c0-2.5-1.114-3.626-1.519-3.895a.5.5 0 0 0-.282-.084h-1.965V7c1.778.104 3.021.43 3.766 1m-4.787-3.979H1.532a.51.51 0 0 0-.51.51v2.454h9.19z"/><path d="M5 13a1 1 0 1 1-2 0 1 1 0 0 1 2 0m7 1a1 1 0 1 0 0-2 1 1 0 0 0 0 2"/></svg>
